public/icons/uc2-xyzstage.svg

<?xml version="1.0" encoding="UTF-8" standalone="no"?>
<svg
   width="1160"
   height="774"
   xml:space="preserve"
   overflow="hidden"
   version="1.1"
   id="svg5525"
   sodipodi:docname="uc2-xyzstage.svg"
   inkscape:version="1.2.2 (b0a84865, 2022-12-01)"
   xmlns:inkscape="http://www.inkscape.org/namespaces/inkscape"
   xmlns:sodipodi="http://sodipodi.sourceforge.net/DTD/sodipodi-0.dtd"
   xmlns="http://www.w3.org/2000/svg"
   xmlns:svg="http://www.w3.org/2000/svg"><defs
     id="defs5529" /><sodipodi:namedview
     id="namedview5527"
     pagecolor="#ffffff"
     bordercolor="#666666"
     borderopacity="1.0"
     inkscape:showpageshadow="2"
     inkscape:pageopacity="0.0"
     inkscape:pagecheckerboard="0"
     inkscape:deskcolor="#d1d1d1"
     showgrid="false"
     inkscape:zoom="0.30490956"
     inkscape:cx="582.13983"
     inkscape:cy="387"
     inkscape:window-width="1460"
     inkscape:window-height="916"
     inkscape:window-x="52"
     inkscape:window-y="38"
     inkscape:window-maximized="1"
     inkscape:current-layer="svg5525" /><rect
     x="14.504825"
     y="339.19131"
     width="423.58356"
     height="423.58356"
     rx="42.358353"
     ry="42.358353"
     fill="#fafafa"
     stroke="#111111"
     stroke-width="21.1792"
     id="rect5079" /><rect
     x="447.42007"
     y="339.19128"
     width="423.58356"
     height="423.58356"
     rx="42.358353"
     ry="42.358353"
     fill="#fafafa"
     stroke="#111111"
     stroke-width="21.1792"
     id="rect5079-5" /><g
     id="g5521"
     transform="translate(-1050.3425,30.945404)"><rect
       x="1578.5"
       y="358.5"
       width="296"
       height="306"
       stroke="#000000"
       stroke-width="9.16667"
       stroke-linecap="butt"
       stroke-linejoin="round"
       stroke-miterlimit="10"
       stroke-opacity="1"
       fill="#000000"
       fill-opacity="1"
       id="rect5469" /><rect
       x="1352.5"
       y="524.5"
       width="114"
       height="143"
       stroke="#000000"
       stroke-width="4.58333"
       stroke-linecap="butt"
       stroke-linejoin="miter"
       stroke-miterlimit="8"
       stroke-opacity="1"
       fill="#000000"
       fill-opacity="1"
       id="rect5471" /><path
       d="M 1461.29,546 H 1349"
       stroke="#ffffff"
       stroke-width="13.75"
       stroke-linecap="butt"
       stroke-linejoin="miter"
       stroke-miterlimit="8"
       stroke-opacity="1"
       fill="none"
       fill-rule="evenodd"
       id="path5473" /><path
       d="M 1461.29,566 1349,566.001"
       stroke="#ffffff"
       stroke-width="13.75"
       stroke-linecap="butt"
       stroke-linejoin="miter"
       stroke-miterlimit="8"
       stroke-opacity="1"
       fill="none"
       fill-rule="evenodd"
       id="path5475" /><path
       d="M 1461.29,605 1349,605.001"
       stroke="#ffffff"
       stroke-width="13.75"
       stroke-linecap="butt"
       stroke-linejoin="miter"
       stroke-miterlimit="8"
       stroke-opacity="1"
       fill="none"
       fill-rule="evenodd"
       id="path5477" /><path
       d="M 1461.29,644 H 1349"
       stroke="#ffffff"
       stroke-width="13.75"
       stroke-linecap="butt"
       stroke-linejoin="miter"
       stroke-miterlimit="8"
       stroke-opacity="1"
       fill="none"
       fill-rule="evenodd"
       id="path5479" /><path
       d="M 1461.29,625 H 1349"
       stroke="#ffffff"
       stroke-width="13.75"
       stroke-linecap="butt"
       stroke-linejoin="miter"
       stroke-miterlimit="8"
       stroke-opacity="1"
       fill="none"
       fill-rule="evenodd"
       id="path5481" /><path
       d="M 1461.29,585 1349,585.001"
       stroke="#ffffff"
       stroke-width="13.75"
       stroke-linecap="butt"
       stroke-linejoin="miter"
       stroke-miterlimit="8"
       stroke-opacity="1"
       fill="none"
       fill-rule="evenodd"
       id="path5483" /><rect
       x="1472.5"
       y="560.5"
       width="296"
       height="64.999901"
       stroke="#000000"
       stroke-width="9.16667"
       stroke-linecap="butt"
       stroke-linejoin="round"
       stroke-miterlimit="10"
       stroke-opacity="1"
       fill="#000000"
       fill-opacity="1"
       id="rect5485" /><rect
       x="1598.5"
       y="136.5"
       width="253"
       height="240"
       stroke="#000000"
       stroke-width="9.16667"
       stroke-linecap="butt"
       stroke-linejoin="round"
       stroke-miterlimit="10"
       stroke-opacity="1"
       fill="#000000"
       fill-opacity="1"
       id="rect5491" /><rect
       x="1598.5"
       y="108.5"
       width="602"
       height="66"
       stroke="#000000"
       stroke-width="9.16667"
       stroke-linecap="butt"
       stroke-linejoin="round"
       stroke-miterlimit="10"
       stroke-opacity="1"
       fill="#000000"
       fill-opacity="1"
       id="rect5493" /><path
       d="m 1656.5,602 c 0,-38.936 31.79,-70.5 71,-70.5 39.21,0 71,31.564 71,70.5 0,38.936 -31.79,70.5 -71,70.5 -39.21,0 -71,-31.564 -71,-70.5 z"
       stroke="#ffffff"
       stroke-width="9.16667"
       stroke-linecap="square"
       stroke-linejoin="round"
       stroke-miterlimit="10"
       stroke-dasharray="27.5, 9.16667"
       stroke-opacity="1"
       fill="#000000"
       fill-rule="evenodd"
       fill-opacity="1"
       id="path5495" /><rect
       x="1349.5"
       y="357.5"
       width="114"
       height="143"
       stroke="#000000"
       stroke-width="4.58333"
       stroke-linecap="butt"
       stroke-linejoin="miter"
       stroke-miterlimit="8"
       stroke-opacity="1"
       fill="#000000"
       fill-opacity="1"
       id="rect5497" /><path
       d="M 1459.29,380 H 1347"
       stroke="#ffffff"
       stroke-width="13.75"
       stroke-linecap="butt"
       stroke-linejoin="miter"
       stroke-miterlimit="8"
       stroke-opacity="1"
       fill="none"
       fill-rule="evenodd"
       id="path5499" /><path
       d="M 1459.29,399 1347,399.001"
       stroke="#ffffff"
       stroke-width="13.75"
       stroke-linecap="butt"
       stroke-linejoin="miter"
       stroke-miterlimit="8"
       stroke-opacity="1"
       fill="none"
       fill-rule="evenodd"
       id="path5501" /><path
       d="M 1459.29,439 1347,439.001"
       stroke="#ffffff"
       stroke-width="13.75"
       stroke-linecap="butt"
       stroke-linejoin="miter"
       stroke-miterlimit="8"
       stroke-opacity="1"
       fill="none"
       fill-rule="evenodd"
       id="path5503" /><path
       d="M 1459.29,478 1347,478.001"
       stroke="#ffffff"
       stroke-width="13.75"
       stroke-linecap="butt"
       stroke-linejoin="miter"
       stroke-miterlimit="8"
       stroke-opacity="1"
       fill="none"
       fill-rule="evenodd"
       id="path5505" /><path
       d="M 1459.29,458 H 1347"
       stroke="#ffffff"
       stroke-width="13.75"
       stroke-linecap="butt"
       stroke-linejoin="miter"
       stroke-miterlimit="8"
       stroke-opacity="1"
       fill="none"
       fill-rule="evenodd"
       id="path5507" /><path
       d="M 1459.29,419 1347,419.001"
       stroke="#ffffff"
       stroke-width="13.75"
       stroke-linecap="butt"
       stroke-linejoin="miter"
       stroke-miterlimit="8"
       stroke-opacity="1"
       fill="none"
       fill-rule="evenodd"
       id="path5509" /><rect
       x="1470.5"
       y="393.5"
       width="296"
       height="65"
       stroke="#000000"
       stroke-width="9.16667"
       stroke-linecap="butt"
       stroke-linejoin="round"
       stroke-miterlimit="10"
       stroke-opacity="1"
       fill="#000000"
       fill-opacity="1"
       id="rect5511" /><path
       d="M 17.4198,14.9891 121.541,119.11 119.11,121.541 14.9891,17.4198 Z M 9.72272,29.1682 0,0 29.1682,9.72272 Z m 117.08428,78.1938 9.723,29.168 -29.168,-9.723 z"
       fill="#000000"
       fill-rule="nonzero"
       fill-opacity="1"
       transform="matrix(-1,0,0,1,1403.03,87.5002)"
       id="path5513" /><path
       d="m 1336.22,110.417 v 97.663 h -3.44 V 110.417 Z M 1320.75,115 1334.5,87.5002 1348.25,115 Z m 27.5,88.496 -13.75,27.5 -13.75,-27.5 z"
       fill="#000000"
       fill-rule="nonzero"
       fill-opacity="1"
       id="path5515" /><path
       d="m 1304.42,157.781 72.4,0.001 v 3.437 h -72.4 z m 4.58,15.469 -27.5,-13.75 27.5,-13.75 z m 63.24,-27.5 27.5,13.75 -27.5,13.75 z"
       fill="#000000"
       fill-rule="nonzero"
       fill-opacity="1"
       id="path5517" /><text
       fill="#000000"
       fill-opacity="1"
       font-family="Arial, Arial_MSFontService, sans-serif"
       font-style="normal"
       font-variant="normal"
       font-weight="400"
       font-stretch="normal"
       font-size="64px"
       text-anchor="start"
       direction="ltr"
       writing-mode="lr-tb"
       unicode-bidi="normal"
       text-decoration="none"
       transform="translate(1412.51,247)"
       id="text5519"
       style="text-decoration:none;text-decoration-line:none">xyz</text></g></svg>

<svg width="1160" height="774" xmlns="http://www.w3.org/2000/svg" xmlns:xlink="http://www.w3.org/1999/xlink" xml:space="preserve" overflow="hidden"><g transform="translate(-1136 59)"><g><rect x="1578.5" y="358.5" width="296" height="306" stroke="#000000" stroke-width="9.16667" stroke-linecap="butt" stroke-linejoin="round" stroke-miterlimit="10" stroke-opacity="1" fill="#000000" fill-opacity="1"/><rect x="1352.5" y="524.5" width="114" height="143" stroke="#000000" stroke-width="4.58333" stroke-linecap="butt" stroke-linejoin="miter" stroke-miterlimit="8" stroke-opacity="1" fill="#000000" fill-opacity="1"/><path d="M1461.29 546 1349 546" stroke="#FFFFFF" stroke-width="13.75" stroke-linecap="butt" stroke-linejoin="miter" stroke-miterlimit="8" stroke-opacity="1" fill="none" fill-rule="evenodd"/><path d="M1461.29 566 1349 566.001" stroke="#FFFFFF" stroke-width="13.75" stroke-linecap="butt" stroke-linejoin="miter" stroke-miterlimit="8" stroke-opacity="1" fill="none" fill-rule="evenodd"/><path d="M1461.29 605 1349 605.001" stroke="#FFFFFF" stroke-width="13.75" stroke-linecap="butt" stroke-linejoin="miter" stroke-miterlimit="8" stroke-opacity="1" fill="none" fill-rule="evenodd"/><path d="M1461.29 644 1349 644" stroke="#FFFFFF" stroke-width="13.75" stroke-linecap="butt" stroke-linejoin="miter" stroke-miterlimit="8" stroke-opacity="1" fill="none" fill-rule="evenodd"/><path d="M1461.29 625 1349 625" stroke="#FFFFFF" stroke-width="13.75" stroke-linecap="butt" stroke-linejoin="miter" stroke-miterlimit="8" stroke-opacity="1" fill="none" fill-rule="evenodd"/><path d="M1461.29 585 1349 585.001" stroke="#FFFFFF" stroke-width="13.75" stroke-linecap="butt" stroke-linejoin="miter" stroke-miterlimit="8" stroke-opacity="1" fill="none" fill-rule="evenodd"/><rect x="1472.5" y="560.5" width="296" height="64.9999" stroke="#000000" stroke-width="9.16667" stroke-linecap="butt" stroke-linejoin="round" stroke-miterlimit="10" stroke-opacity="1" fill="#000000" fill-opacity="1"/><rect x="0" y="0" width="378" height="378" stroke="#000000" stroke-width="27.5" stroke-linecap="butt" stroke-linejoin="miter" stroke-miterlimit="8" stroke-opacity="1" fill="none" transform="matrix(1.83697e-16 1 1 -1.83697e-16 1537 322)"/><rect x="0" y="0" width="378" height="378" stroke="#000000" stroke-width="27.5" stroke-linecap="butt" stroke-linejoin="miter" stroke-miterlimit="8" stroke-opacity="1" fill="none" transform="matrix(1.83697e-16 1 1 -1.83697e-16 1154 322)"/><rect x="1598.5" y="136.5" width="253" height="240" stroke="#000000" stroke-width="9.16667" stroke-linecap="butt" stroke-linejoin="round" stroke-miterlimit="10" stroke-opacity="1" fill="#000000" fill-opacity="1"/><rect x="1598.5" y="108.5" width="602" height="66" stroke="#000000" stroke-width="9.16667" stroke-linecap="butt" stroke-linejoin="round" stroke-miterlimit="10" stroke-opacity="1" fill="#000000" fill-opacity="1"/><path d="M1656.5 602C1656.5 563.064 1688.29 531.5 1727.5 531.5 1766.71 531.5 1798.5 563.064 1798.5 602 1798.5 640.936 1766.71 672.5 1727.5 672.5 1688.29 672.5 1656.5 640.936 1656.5 602Z" stroke="#FFFFFF" stroke-width="9.16667" stroke-linecap="square" stroke-linejoin="round" stroke-miterlimit="10" stroke-dasharray="27.5 9.16667" stroke-opacity="1" fill="#000000" fill-rule="evenodd" fill-opacity="1"/><rect x="1349.5" y="357.5" width="114" height="143" stroke="#000000" stroke-width="4.58333" stroke-linecap="butt" stroke-linejoin="miter" stroke-miterlimit="8" stroke-opacity="1" fill="#000000" fill-opacity="1"/><path d="M1459.29 380 1347 380" stroke="#FFFFFF" stroke-width="13.75" stroke-linecap="butt" stroke-linejoin="miter" stroke-miterlimit="8" stroke-opacity="1" fill="none" fill-rule="evenodd"/><path d="M1459.29 399 1347 399.001" stroke="#FFFFFF" stroke-width="13.75" stroke-linecap="butt" stroke-linejoin="miter" stroke-miterlimit="8" stroke-opacity="1" fill="none" fill-rule="evenodd"/><path d="M1459.29 439 1347 439.001" stroke="#FFFFFF" stroke-width="13.75" stroke-linecap="butt" stroke-linejoin="miter" stroke-miterlimit="8" stroke-opacity="1" fill="none" fill-rule="evenodd"/><path d="M1459.29 478 1347 478.001" stroke="#FFFFFF" stroke-width="13.75" stroke-linecap="butt" stroke-linejoin="miter" stroke-miterlimit="8" stroke-opacity="1" fill="none" fill-rule="evenodd"/><path d="M1459.29 458 1347 458" stroke="#FFFFFF" stroke-width="13.75" stroke-linecap="butt" stroke-linejoin="miter" stroke-miterlimit="8" stroke-opacity="1" fill="none" fill-rule="evenodd"/><path d="M1459.29 419 1347 419.001" stroke="#FFFFFF" stroke-width="13.75" stroke-linecap="butt" stroke-linejoin="miter" stroke-miterlimit="8" stroke-opacity="1" fill="none" fill-rule="evenodd"/><rect x="1470.5" y="393.5" width="296" height="65" stroke="#000000" stroke-width="9.16667" stroke-linecap="butt" stroke-linejoin="round" stroke-miterlimit="10" stroke-opacity="1" fill="#000000" fill-opacity="1"/><path d="M17.4198 14.9891 121.541 119.11 119.11 121.541 14.9891 17.4198ZM9.72272 29.1682 0 0 29.1682 9.72272ZM126.807 107.362 136.53 136.53 107.362 126.807Z" fill="#000000" fill-rule="nonzero" fill-opacity="1" transform="matrix(-1 0 0 1 1403.03 87.5002)"/><path d="M1336.22 110.417 1336.22 208.08 1332.78 208.08 1332.78 110.417ZM1320.75 115 1334.5 87.5002 1348.25 115ZM1348.25 203.496 1334.5 230.996 1320.75 203.496Z" fill="#000000" fill-rule="nonzero" fill-opacity="1"/><path d="M1304.42 157.781 1376.82 157.782 1376.82 161.219 1304.42 161.219ZM1309 173.25 1281.5 159.5 1309 145.75ZM1372.24 145.75 1399.74 159.5 1372.24 173.25Z" fill="#000000" fill-rule="nonzero" fill-opacity="1"/><text fill="#000000" fill-opacity="1" font-family="Arial,Arial_MSFontService,sans-serif" font-style="normal" font-variant="normal" font-weight="400" font-stretch="normal" font-size="64" text-anchor="start" direction="ltr" writing-mode="lr-tb" unicode-bidi="normal" text-decoration="none" transform="matrix(1 0 0 1 1412.51 247)">xyz</text></g></g></svg>
